public/static/img/user/id_card.svg

<svg width="24" height="24" viewBox="0 0 24 24" fill="none" xmlns="http://www.w3.org/2000/svg">
<path d="M20.6524 3.12305H3.72029C2.3219 3.12305 1.1875 4.25744 1.1875 5.65601V18.9127C1.1875 20.3111 2.3219 21.4432 3.72029 21.4432H20.6547C22.0533 21.4432 23.1875 20.309 23.1875 18.9127V5.65601C23.1854 4.25744 22.051 3.12305 20.6524 3.12305ZM15.2757 9.08126H18.7924C19.0718 9.08126 19.3295 9.46137 19.3295 9.74056C19.3295 10.0198 19.0716 10.4 18.7924 10.4H15.2757C14.9963 10.4 14.7386 10.0198 14.7386 9.74056C14.7386 9.46137 14.9963 9.08126 15.2757 9.08126ZM15.2757 11.8997H18.7924C19.0718 11.8997 19.3295 12.28 19.3295 12.5592C19.3295 12.8384 19.0716 13.2187 18.7924 13.2187H15.2757C14.9963 13.2187 14.7386 12.8384 14.7386 12.5592C14.7386 12.28 14.9963 11.8997 15.2757 11.8997ZM3.79555 16.7998C3.73021 16.7873 3.66797 16.762 3.6124 16.7254C3.55683 16.6889 3.50902 16.6417 3.4717 16.5866C3.43439 16.5315 3.4083 16.4696 3.39493 16.4045C3.38156 16.3393 3.38117 16.2721 3.39379 16.2068C3.72029 14.5013 4.9942 13.1865 6.60107 12.7247C5.76752 12.2779 5.19185 11.4079 5.19185 10.396C5.19185 8.93303 6.38194 7.74503 7.84285 7.74503C9.30375 7.74503 10.4938 8.93512 10.4938 10.396C10.4938 11.4079 9.91818 12.2779 9.08463 12.7247C10.6959 13.1867 11.9696 14.5078 12.2919 16.2201C12.3057 16.2933 12.3032 16.3686 12.2845 16.4407C12.2658 16.5127 12.2315 16.5798 12.1839 16.637C12.1363 16.6943 12.0766 16.7403 12.0091 16.7718C11.9417 16.8033 11.8681 16.8196 11.7936 16.8193M20.4831 16.0371H15.2757C14.9963 16.0371 14.7386 15.6568 14.7386 15.3776C14.7386 15.0984 14.9965 14.7183 15.2757 14.7183H20.4831C20.7623 14.7183 21.02 15.0986 21.02 15.3776C21.02 15.6568 20.7621 16.0371 20.4831 16.0371Z" fill="#171717"/>
<path d="M3.79553 16.7989C3.73019 16.7864 3.66795 16.7611 3.61238 16.7246C3.55681 16.688 3.509 16.6408 3.47168 16.5857C3.43437 16.5307 3.40828 16.4688 3.39491 16.4036C3.38154 16.3384 3.38115 16.2713 3.39377 16.2059C3.72027 14.5004 4.99418 13.1856 6.60105 12.7238C5.7675 12.277 5.19183 11.407 5.19183 10.3951C5.19183 8.93214 6.38192 7.74414 7.84283 7.74414C9.30373 7.74414 10.4938 8.93424 10.4938 10.3951C10.4938 11.407 9.91816 12.277 9.08461 12.7238C10.6958 13.1858 11.9696 14.5069 12.2919 16.2192C12.3057 16.2924 12.3032 16.3677 12.2845 16.4398C12.2658 16.5119 12.2314 16.5789 12.1838 16.6362C12.1362 16.6934 12.0766 16.7394 12.0091 16.771C11.9416 16.8025 11.868 16.8187 11.7936 16.8184" fill="#00A609"/>
<mask id="mask0_384_8679" style="mask-type:alpha" maskUnits="userSpaceOnUse" x="1" y="3" width="23" height="19">
<path d="M20.6524 3.12305H3.72029C2.3219 3.12305 1.1875 4.25744 1.1875 5.65601V18.9127C1.1875 20.3111 2.3219 21.4432 3.72029 21.4432H20.6547C22.0533 21.4432 23.1875 20.309 23.1875 18.9127V5.65601C23.1854 4.25744 22.051 3.12305 20.6524 3.12305ZM15.2757 9.08126H18.7924C19.0718 9.08126 19.3295 9.46137 19.3295 9.74056C19.3295 10.0198 19.0716 10.4 18.7924 10.4H15.2757C14.9963 10.4 14.7386 10.0198 14.7386 9.74056C14.7386 9.46137 14.9963 9.08126 15.2757 9.08126ZM15.2757 11.8997H18.7924C19.0718 11.8997 19.3295 12.28 19.3295 12.5592C19.3295 12.8384 19.0716 13.2187 18.7924 13.2187H15.2757C14.9963 13.2187 14.7386 12.8384 14.7386 12.5592C14.7386 12.28 14.9963 11.8997 15.2757 11.8997ZM3.79555 16.7998C3.73021 16.7873 3.66797 16.762 3.6124 16.7254C3.55683 16.6889 3.50902 16.6417 3.4717 16.5866C3.43439 16.5315 3.4083 16.4696 3.39493 16.4045C3.38156 16.3393 3.38117 16.2721 3.39379 16.2068C3.72029 14.5013 4.9942 13.1865 6.60107 12.7247C5.76752 12.2779 5.19185 11.4079 5.19185 10.396C5.19185 8.93303 6.38194 7.74503 7.84285 7.74503C9.30375 7.74503 10.4938 8.93512 10.4938 10.396C10.4938 11.4079 9.91818 12.2779 9.08463 12.7247C10.6959 13.1867 11.9696 14.5078 12.2919 16.2201C12.3057 16.2933 12.3032 16.3686 12.2845 16.4407C12.2658 16.5127 12.2315 16.5798 12.1839 16.637C12.1363 16.6943 12.0766 16.7403 12.0091 16.7718C11.9417 16.8033 11.8681 16.8196 11.7936 16.8193M20.4831 16.0371H15.2757C14.9963 16.0371 14.7386 15.6568 14.7386 15.3776C14.7386 15.0984 14.9965 14.7183 15.2757 14.7183H20.4831C20.7623 14.7183 21.02 15.0986 21.02 15.3776C21.02 15.6568 20.7621 16.0371 20.4831 16.0371Z" fill="black"/>
</mask>
<g mask="url(#mask0_384_8679)">
<rect x="10.79" y="-15" width="16" height="42" transform="rotate(37.8828 10.79 -15)" fill="white" fill-opacity="0.1"/>
</g>
</svg>

<svg width="24" height="24" fill="none" xmlns="http://www.w3.org/2000/svg"><path d="M20.652 3.123H3.72a2.533 2.533 0 0 0-2.533 2.533v13.257a2.531 2.531 0 0 0 2.533 2.53h16.935a2.533 2.533 0 0 0 2.532-2.53V5.656a2.537 2.537 0 0 0-2.535-2.533Zm-5.376 5.958h3.516c.28 0 .537.38.537.66 0 .279-.257.659-.537.659h-3.516c-.28 0-.537-.38-.537-.66 0-.279.257-.659.537-.659Zm0 2.819h3.516c.28 0 .537.38.537.66 0 .278-.257.659-.537.659h-3.516c-.28 0-.537-.38-.537-.66 0-.279.257-.66.537-.66Zm-11.48 4.9a.506.506 0 0 1-.402-.593c.326-1.706 1.6-3.02 3.207-3.482a2.644 2.644 0 0 1-1.41-2.329 2.654 2.654 0 0 1 2.652-2.651c1.46 0 2.65 1.19 2.65 2.651a2.644 2.644 0 0 1-1.408 2.329 4.515 4.515 0 0 1 3.207 3.495.505.505 0 0 1-.498.6m8.69-.783h-5.208c-.28 0-.537-.38-.537-.66 0-.279.257-.659.537-.659h5.207c.28 0 .537.38.537.66 0 .279-.258.66-.537.66Z" fill="#171717"/><path d="M3.796 16.799a.507.507 0 0 1-.402-.593c.326-1.706 1.6-3.02 3.207-3.482a2.644 2.644 0 0 1-1.41-2.329 2.654 2.654 0 0 1 2.652-2.65c1.46 0 2.65 1.19 2.65 2.65a2.644 2.644 0 0 1-1.408 2.329 4.515 4.515 0 0 1 3.207 3.495.505.505 0 0 1-.498.6" fill="#00A609"/><mask id="a" style="mask-type:alpha" maskUnits="userSpaceOnUse" x="1" y="3" width="23" height="19"><path d="M20.652 3.123H3.72a2.533 2.533 0 0 0-2.533 2.533v13.257a2.531 2.531 0 0 0 2.533 2.53h16.935a2.533 2.533 0 0 0 2.532-2.53V5.656a2.537 2.537 0 0 0-2.535-2.533Zm-5.376 5.958h3.516c.28 0 .537.38.537.66 0 .279-.257.659-.537.659h-3.516c-.28 0-.537-.38-.537-.66 0-.279.257-.659.537-.659Zm0 2.819h3.516c.28 0 .537.38.537.66 0 .278-.257.659-.537.659h-3.516c-.28 0-.537-.38-.537-.66 0-.279.257-.66.537-.66Zm-11.48 4.9a.506.506 0 0 1-.402-.593c.326-1.706 1.6-3.02 3.207-3.482a2.644 2.644 0 0 1-1.41-2.329 2.654 2.654 0 0 1 2.652-2.651c1.46 0 2.65 1.19 2.65 2.651a2.644 2.644 0 0 1-1.408 2.329 4.515 4.515 0 0 1 3.207 3.495.505.505 0 0 1-.498.6m8.69-.783h-5.208c-.28 0-.537-.38-.537-.66 0-.279.257-.659.537-.659h5.207c.28 0 .537.38.537.66 0 .279-.258.66-.537.66Z" fill="#000"/></mask><g mask="url(#a)"><path fill="#fff" fill-opacity=".1" d="m10.79-15 12.628 9.825-25.79 33.149L-15 18.149z"/></g></svg>
